X:83
% %NRChange 2011-01-17
T:Vidar's Vals
C:Vidar Skrede
R:Waltz
M:3/4
L:1/8
Q:1/4=120
K:G
%P:A
|:v"G"[D2G,2] B[DG,] {Bd/c/}d2 | "G/B"[D2G,2] B[DG,] d2 | "C"~(cB) (Ac) eg | "D"~(gf) (ge) dd |
 "G"[D2G,2] B[DG,] d2 | "G/B"[D2G,2] B[DG,] d2 | "C"(cB) (AD) "D"[FA,][FA,] |[1 "G" {GF}[G4G,4] ([GG,]E) :|[2 "G"[G4G,4] (GA) |
%P:B
|:"G"[B2D2G,2] ba g2 | "Bm"[f4B4] [f2B2] | "C"[g4c4] [a2c2] | [c4E4] ~([cE]B) | "Am"{G}A2 A(G A)B |
"C"{cB}c2 (cA) ce | g2 ~(ge) [cE][cE] |"D" {dc}[d3D3] (c BA) |
"G"[B2DG,2] ba g2 | "Bm"[f4B4] [f2B2] | "C"[g4c4] [a2c2] | [c4E4] ~([cE]B) | "Am"{G}A2 A(G A)B |
"C"{cB}c2 (cD) "D"[FA,][FA,] | "G"[G2G,2] [AG][GG,] ([AG]B) |[1 [G4G,4] (GA) :|[2 G4 (GE) |]

